X: 21292
T: The CAIRNEY MOUNT
%R: march, reel
B: "Edinburgh Repository of Music" v.2 p.129 #2
F: http://digital.nls.uk/special-collections-of-printed-music/pageturner.cfm?id=87776133
Z: 2015 John Chambers <jc:trillian.mit.edu>
M: C
L: 1/8
K: D
d>B |\
A2D2 F2A2 | BAGF E2d>B | A2D2 F2A2 | BcdA F2A2 |\
D2d2 ~d3e/f/ | e2E2 E2D2 | F2A2 BcdB | A2D2 F2 :|
|: A2 |\
d3e defd | gfed e2f>e | d2A2 F2A2 | BcdA F2A2 |\
D2d2 ~d3e/f/ | e2E2 E2D2 | F2A2 BcdB | A2F2 A2 :|

%%sep 2 1 500
%%sep 1 1 500

